Newaita/actions/16/edit-cut.svg

<svg height="16" viewBox="0 0 16 16" width="16" xmlns="http://www.w3.org/2000/svg"><path d="m4.960938 1.777344s-1.984376 1.65625 0 3.96875l1.808593 2.199218c-.621093.945313-1.121093 1.710938-1.445312 2.207032-.21875-.066406-.453125-.105469-.695313-.105469-1.28125 0-2.3125 1.035156-2.3125 2.316406s1.03125 2.316407 2.3125 2.316407c1.285156 0 2.316406-1.035157 2.316406-2.316407 0-.484375-.148437-.9375-.402343-1.308593l1.394531-1.691407 1.394531 1.691407c-.253906.371093-.402343.824218-.402343 1.308593 0 1.28125 1.035156 2.316407 2.316406 2.316407s2.316406-1.035157 2.316406-2.316407-1.035156-2.316406-2.316406-2.316406c-.242188 0-.476563.039063-.695313.105469-.320312-.496094-.824219-1.261719-1.445312-2.207032l1.808593-2.199218c1.984376-2.3125 0-3.96875 0-3.96875-.695312.976562-1.859374 2.710937-2.976562 4.398437-1.113281-1.6875-2.28125-3.421875-2.976562-4.398437zm2.976562 5.789062c.277344 0 .496094.222656.496094.496094 0 .277344-.21875.496094-.496094.496094-.273438 0-.496094-.21875-.496094-.496094 0-.273438.222656-.496094.496094-.496094zm-3.308594 3.804688c.550782 0 .992188.441406.992188.992187s-.441406.992188-.992188.992188c-.546875 0-.992187-.441407-.992187-.992188s.445312-.992187.992187-.992187zm6.617188 0c.550781 0 .992187.441406.992187.992187s-.441406.992188-.992187.992188c-.550782 0-.992188-.441407-.992188-.992188s.441406-.992187.992188-.992187zm0 0" fill="#424242"/></svg>

<svg xmlns="http://www.w3.org/2000/svg" xmlns:xlink="http://www.w3.org/1999/xlink" width="16px" height="16px" viewBox="0 0 16 16" version="1.1">
<g id="surface1">
     <defs>
  <style id="current-color-scheme" type="text/css">
   .ColorScheme-Text { color:#424242; } .ColorScheme-Highlight { color:#eeeeee; }
  </style>
 </defs>
<path style="fill:currentColor" class="ColorScheme-Text" d="M 4.960938 1.777344 C 4.960938 1.777344 2.976562 3.433594 4.960938 5.746094 L 6.769531 7.945312 C 6.148438 8.890625 5.648438 9.65625 5.324219 10.152344 C 5.105469 10.085938 4.871094 10.046875 4.628906 10.046875 C 3.347656 10.046875 2.316406 11.082031 2.316406 12.363281 C 2.316406 13.644531 3.347656 14.679688 4.628906 14.679688 C 5.914062 14.679688 6.945312 13.644531 6.945312 12.363281 C 6.945312 11.878906 6.796875 11.425781 6.542969 11.054688 L 7.9375 9.363281 L 9.332031 11.054688 C 9.078125 11.425781 8.929688 11.878906 8.929688 12.363281 C 8.929688 13.644531 9.964844 14.679688 11.246094 14.679688 C 12.527344 14.679688 13.5625 13.644531 13.5625 12.363281 C 13.5625 11.082031 12.527344 10.046875 11.246094 10.046875 C 11.003906 10.046875 10.769531 10.085938 10.550781 10.152344 C 10.230469 9.65625 9.726562 8.890625 9.105469 7.945312 L 10.914062 5.746094 C 12.898438 3.433594 10.914062 1.777344 10.914062 1.777344 C 10.21875 2.753906 9.054688 4.488281 7.9375 6.175781 C 6.824219 4.488281 5.65625 2.753906 4.960938 1.777344 Z M 7.9375 7.566406 C 8.214844 7.566406 8.433594 7.789062 8.433594 8.0625 C 8.433594 8.339844 8.214844 8.558594 7.9375 8.558594 C 7.664062 8.558594 7.441406 8.339844 7.441406 8.0625 C 7.441406 7.789062 7.664062 7.566406 7.9375 7.566406 Z M 4.628906 11.371094 C 5.179688 11.371094 5.621094 11.8125 5.621094 12.363281 C 5.621094 12.914062 5.179688 13.355469 4.628906 13.355469 C 4.082031 13.355469 3.636719 12.914062 3.636719 12.363281 C 3.636719 11.8125 4.082031 11.371094 4.628906 11.371094 Z M 11.246094 11.371094 C 11.796875 11.371094 12.238281 11.8125 12.238281 12.363281 C 12.238281 12.914062 11.796875 13.355469 11.246094 13.355469 C 10.695312 13.355469 10.253906 12.914062 10.253906 12.363281 C 10.253906 11.8125 10.695312 11.371094 11.246094 11.371094 Z M 11.246094 11.371094 "/>
</g>
</svg>
